X: 1350
T: The Sporting Boys
R:Reel
N:Collecrted by O'Reilly
B:O'Neill's 1350
Z:Transcribed by Trish O'Neil
M:C|
L:1/8
K:G
(BA)|G2(BG) AcBA|G2(BG) GEDE|G2(BG) ABce|dBgBc2(BA)|
G2(BG) AcBA|G2(BG) GEDE|DEGB cBAe|dBgBc2||
BA|Bdgd edgd|Bdgde2dc|Bdgd edef|gedBc2BA|
Bdgd edgd|Bdgde2dc|Bdgd egfa|gedBc2|]


